X:1
T:Title
%%score { ( 1 3 5 ) | ( 2 4 ) }
L:1/8
M:4/2
K:Eb
V:1 treble nm="Grand Piano"
V:3 treble 
V:5 treble 
V:2 bass 
V:4 bass 
V:1
 z8 z4[Q:1/4=196] [G,E]4 | [B,EG]4 [B,F]4 [CEA]4 [_DEG]4 | [CEc]8 [DFB]4 [DFB]4 | %3
 [DEB]4 [B,DA]4 [B,EG]4 [CEA]4 |[M:6/4] .[DF]12 |[M:2/4] [DF]4 |[M:8/4] [EG]4 [Ge]4 [Ad]4 [Ac]4 | %7
 [EB]8 [B,EG]4 [B,EG]4 | [CEA]4 [CEc]4 [B,DF]4 [B,DA]4 |[M:6/4] [B,EG]12 |[M:2/4] [B,DB]4 | %11
[M:8/4] [B,EG]4 [CE=A]4 [B,FB]4 [Fc]4 | [Fd]8 [DFB]4 [B,GB]4 | [Ge]4 [Ge]4 [_Gd]4 [Gc]4 | %14
[M:6/4] .B12 |[M:2/4] B4 |[M:8/4] e4 G4 F4 G4 | B4 z4 [EG]4 [CEA]4 | [B,EG]4 [G,E]4 E4 z2 G2 | %19
[M:6/4] E12 |] %20
V:2
 z8 z4 E,4 | E,4 D,4 C,4 B,,4 | A,,8 A,,4 A,4 | G,4 F,4 E,4 A,,4 |[M:6/4] .[B,,B,]12 | %5
[M:2/4] [B,,B,]4 |[M:8/4] [E,B,]4 [E,B,]4 [F,B,]4 [F,A,]4 | G,8 E,4 D,4 | C,4 A,,4 B,,4 B,,4 | %9
[M:6/4] E,12 |[M:2/4] B,,4 |[M:8/4] E,4 E,4 D,4 [C,=A,]4 | [B,,B,]8 B,,4 E,4 | %13
 [C,B,]4 [C,C]4 [D,=A,]4 [D,A,]4 |[M:6/4][K:treble] .[G,B,G]12 |[M:2/4] [A,B,D]4 | %16
[M:8/4][K:bass] [G,B,E]4 [E,B,E]4 [D,B,]4 [E,B,E]4 | z4 A4 [C,E,]4 A,,4 | B,,4 B,,4 B,,4 z2 B,2 | %19
[M:6/4] [E,G,]12 |] %20
V:3
 x16 | x16 | x16 | x16 |[M:6/4] x12 |[M:2/4] x4 |[M:8/4] x16 | x16 | x16 |[M:6/4] x12 |[M:2/4] x4 | %11
[M:8/4] x16 | x16 | x16 |[M:6/4] x12 |[M:2/4] x4 |[M:8/4] x16 | [B,D]8 z8 | z8 z4 D4 | %19
[M:6/4] x12 |] %20
V:4
 x16 | x16 | x16 | x16 |[M:6/4] x12 |[M:2/4] x4 |[M:8/4] x16 | x16 | x16 |[M:6/4] x12 |[M:2/4] x4 | %11
[M:8/4] x16 | x16 | x16 |[M:6/4][K:treble] x12 |[M:2/4] x4 |[M:8/4][K:bass] x16 | B,,8 z8 | %18
 z8 z4 B,,4 |[M:6/4] x12 |] %20
V:5
 x16 | x16 | x16 | x16 |[M:6/4] x12 |[M:2/4] x4 |[M:8/4] x16 | x16 | x16 |[M:6/4] x12 |[M:2/4] x4 | %11
[M:8/4] x16 | x16 | x16 |[M:6/4] x12 |[M:2/4] x4 |[M:8/4] x16 | x16 | z8 [A,F]8 |[M:6/4] x12 |] %20

